p/themes/BlueLagoon/icons/icon.svg

<!-- Created with Inkscape (http://www.inkscape.org/) -->
<svg xmlns="http://www.w3.org/2000/svg" xmlns:xlink="http://www.w3.org/1999/xlink">
<defs>
<linearGradient id="linearGradient3796">
<stop stop-color="#0090ff" offset="0"/>
<stop stop-color="#0062be" offset="1"/>
</linearGradient>
<linearGradient id="linearGradient3802" y2="53.018" xlink:href="#linearGradient3796" gradientUnits="userSpaceOnUse" x2="72.873" y1="14.64" x1="115.7"/>
</defs>
<g fill="#FFF" transform="matrix(0.41471269,0,0,0.41471269,0.4367596,36.849335)">
<g transform="matrix(0.9774773,0,0,0.9774773,0.92631875,-74.208835)">
<path d="m64.102-11.469,0,14.25c36.018,0.0418,65.198,29.235,65.218,65.259h15.189c-0.46275-43.994-36.228-79.509-80.332-79.509-0.02635,0-0.05196-0.000025-0.0783,0z"/>
<path d="m64.102,14.799,0,14.876c21.188,0.12639,38.346,17.217,38.639,38.365h15.581c-0.21-29.445-24.175-53.241-53.669-53.241-0.18468,0-0.36384-0.0019-0.54807,0z"/>
</g>
<g transform="translate(-4.1395349,-75.482558)">
<path d="M61.077,4.2013c-32.069,3.4709-57.062,30.537-57.188,63.5h11.906c-0.001-0.13569,0-0.27032,0-0.40625,0-26.472,19.725-48.306,45.281-51.656v-11.437z"/>
<path d="m61.077,25.42c-20.105,3.4776-35.409,20.946-35.469,42.031h11.125c0.11711-14.724,10.509-27.002,24.344-30.062v-11.969z"/>
<path d="m68.171,50.108c-9.502,0-17.188,7.6855-17.188,17.188,0,9.502,7.6855,17.219,17.188,17.219,9.502,0,17.219-7.7167,17.219-17.219,0-9.502-7.7167-17.188-17.219-17.188z"/>
<path d="m98.14,74.17c-2.9607,13.954-15.281,24.445-30.094,24.562v11.656c0.12455,0.001,0.2502,0,0.375,0,21.41,0,39.173-15.697,42.344-36.219h-12.625z"/>
<path d="m119.58,74.17c-3.3587,25.459-25.062,45.157-51.406,45.281v12.656c33.284-0.0636,60.6-25.457,63.719-57.938h-12.312z"/>
</g>
</g>
<g fill="url(#linearGradient3802)" transform="matrix(0.40537224,0,0,0.40537224,1.1327158,5.273491)">
<path d="m64.102-11.469,0,14.25c36.018,0.0418,65.198,29.235,65.218,65.259h15.189c-0.46275-43.994-36.228-79.509-80.332-79.509-0.02635,0-0.05196-0.000025-0.0783,0z"/>
<path d="m64.102,14.799,0,14.876c21.188,0.12639,38.346,17.217,38.639,38.365h15.581c-0.21-29.445-24.175-53.241-53.669-53.241-0.18468,0-0.36384-0.0019-0.54807,0z"/>
</g>
<g fill="#222" transform="matrix(0.41471269,0,0,0.41471269,-0.96815804,4.7452623)">
<path d="M61.077,4.2013c-32.069,3.4709-57.062,30.537-57.188,63.5h11.906c-0.001-0.13569,0-0.27032,0-0.40625,0-26.472,19.725-48.306,45.281-51.656v-11.437z"/>
<path d="m61.077,25.42c-20.105,3.4776-35.409,20.946-35.469,42.031h11.125c0.11711-14.724,10.509-27.002,24.344-30.062v-11.969z"/>
<path d="m68.171,50.108c-9.502,0-17.188,7.6855-17.188,17.188,0,9.502,7.6855,17.219,17.188,17.219,9.502,0,17.219-7.7167,17.219-17.219,0-9.502-7.7167-17.188-17.219-17.188z"/>
<path d="m98.14,74.17c-2.9607,13.954-15.281,24.445-30.094,24.562v11.656c0.12455,0.001,0.2502,0,0.375,0,21.41,0,39.173-15.697,42.344-36.219h-12.625z"/>
<path d="m119.58,74.17c-3.3587,25.459-25.062,45.157-51.406,45.281v12.656c33.284-0.0636,60.6-25.457,63.719-57.938h-12.312z"/>
</g>
</svg>

<?xml version="1.0" encoding="UTF-8" standalone="no"?>
<!-- Created with Inkscape (http://www.inkscape.org/) -->

<svg
   xmlns:dc="http://purl.org/dc/elements/1.1/"
   xmlns:cc="http://creativecommons.org/ns#"
   xmlns:rdf="http://www.w3.org/1999/02/22-rdf-syntax-ns#"
   xmlns:svg="http://www.w3.org/2000/svg"
   xmlns="http://www.w3.org/2000/svg"
   xmlns:xlink="http://www.w3.org/1999/xlink"
   xmlns:sodipodi="http://sodipodi.sourceforge.net/DTD/sodipodi-0.dtd"
   xmlns:inkscape="http://www.inkscape.org/namespaces/inkscape"
   version="1.1"
   id="svg48"
   sodipodi:docname="icon.svg"
   width="40"
   height="40.221046"
   inkscape:version="0.92.3 (2405546, 2018-03-11)">
  <metadata
     id="metadata52">
    <rdf:RDF>
      <cc:Work
         rdf:about="">
        <dc:format>image/svg+xml</dc:format>
        <dc:type
           rdf:resource="http://purl.org/dc/dcmitype/StillImage" />
        <dc:title></dc:title>
      </cc:Work>
    </rdf:RDF>
  </metadata>
  <sodipodi:namedview
     pagecolor="#ffffff"
     bordercolor="#666666"
     borderopacity="1"
     objecttolerance="10"
     gridtolerance="10"
     guidetolerance="10"
     inkscape:pageopacity="0"
     inkscape:pageshadow="2"
     inkscape:window-width="1920"
     inkscape:window-height="1023"
     id="namedview50"
     showgrid="false"
     fit-margin-top="0"
     fit-margin-left="0"
     fit-margin-right="0"
     fit-margin-bottom="0"
     inkscape:zoom="6.675088"
     inkscape:cx="5.8566921"
     inkscape:cy="7.2991985"
     inkscape:window-x="0"
     inkscape:window-y="0"
     inkscape:window-maximized="1"
     inkscape:current-layer="svg48" />
  <defs
     id="defs8">
    <linearGradient
       id="linearGradient3796">
      <stop
         stop-color="#0090ff"
         offset="0"
         id="stop2" />
      <stop
         stop-color="#0062be"
         offset="1"
         id="stop4" />
    </linearGradient>
    <linearGradient
       id="linearGradient3802"
       y2="53.018002"
       xlink:href="#linearGradient3796"
       gradientUnits="userSpaceOnUse"
       x2="72.873001"
       y1="14.64"
       x1="115.7" />
    <linearGradient
       inkscape:collect="always"
       xlink:href="#linearGradient3796"
       id="linearGradient862"
       gradientUnits="userSpaceOnUse"
       x1="115.7"
       y1="14.64"
       x2="72.873001"
       y2="53.018002" />
    <linearGradient
       inkscape:collect="always"
       xlink:href="#linearGradient3796"
       id="linearGradient864"
       gradientUnits="userSpaceOnUse"
       x1="115.7"
       y1="14.64"
       x2="72.873001"
       y2="53.018002" />
  </defs>
  <g
     transform="matrix(0.27936284,0,0,0.27936284,0.06999014,24.402283)"
     id="g28"
     style="fill:#ffffff">
    <g
       transform="matrix(0.9774773,0,0,0.9774773,0.92631875,-74.208835)"
       id="g14">
      <path
         d="M 64.102,-11.469 V 2.781 C 100.12,2.8228 129.3,32.016 129.32,68.04 h 15.189 c -0.46275,-43.994 -36.228,-79.509 -80.332,-79.509 -0.02635,0 -0.05196,-2.5e-5 -0.0783,0 z"
         id="path10"
         inkscape:connector-curvature="0" />
      <path
         d="m 64.102,14.799 v 14.876 c 21.188,0.12639 38.346,17.217 38.639,38.365 h 15.581 C 118.112,38.595 94.147,14.799 64.653,14.799 c -0.18468,0 -0.36384,-0.0019 -0.54807,0 z"
         id="path12"
         inkscape:connector-curvature="0" />
    </g>
    <g
       transform="translate(-4.1395349,-75.482558)"
       id="g26">
      <path
         d="M 61.077,4.2013 C 29.008,7.6722 4.015,34.7383 3.889,67.7013 h 11.906 c -10e-4,-0.13569 0,-0.27032 0,-0.40625 0,-26.472 19.725,-48.306 45.281,-51.656 v -11.437 z"
         id="path16"
         inkscape:connector-curvature="0" />
      <path
         d="M 61.077,25.42 C 40.972,28.8976 25.668,46.366 25.608,67.451 H 36.733 C 36.85011,52.727 47.242,40.449 61.077,37.389 Z"
         id="path18"
         inkscape:connector-curvature="0" />
      <path
         d="m 68.171,50.108 c -9.502,0 -17.188,7.6855 -17.188,17.188 0,9.502 7.6855,17.219 17.188,17.219 9.502,0 17.219,-7.7167 17.219,-17.219 0,-9.502 -7.7167,-17.188 -17.219,-17.188 z"
         id="path20"
         inkscape:connector-curvature="0" />
      <path
         d="M 98.14,74.17 C 95.1793,88.124 82.859,98.615 68.046,98.732 v 11.656 c 0.12455,10e-4 0.2502,0 0.375,0 21.41,0 39.173,-15.697 42.344,-36.219 H 98.14 Z"
         id="path22"
         inkscape:connector-curvature="0" />
      <path
         d="m 119.58,74.17 c -3.3587,25.459 -25.062,45.157 -51.406,45.281 v 12.656 c 33.284,-0.0636 60.6,-25.457 63.719,-57.938 h -12.312 z"
         id="path24"
         inkscape:connector-curvature="0" />
    </g>
  </g>
  <g
     transform="matrix(0.27307083,0,0,0.27307083,0.53880699,3.1318524)"
     id="g34"
     style="fill:url(#linearGradient3802)">
    <path
       d="M 64.102,-11.469 V 2.781 C 100.12,2.8228 129.3,32.016 129.32,68.04 h 15.189 c -0.46275,-43.994 -36.228,-79.509 -80.332,-79.509 -0.02635,0 -0.05196,-2.5e-5 -0.0783,0 z"
       id="path30"
       inkscape:connector-curvature="0"
       style="fill:url(#linearGradient862)" />
    <path
       d="m 64.102,14.799 v 14.876 c 21.188,0.12639 38.346,17.217 38.639,38.365 h 15.581 C 118.112,38.595 94.147,14.799 64.653,14.799 c -0.18468,0 -0.36384,-0.0019 -0.54807,0 z"
       id="path32"
       inkscape:connector-curvature="0"
       style="fill:url(#linearGradient864)" />
  </g>
  <g
     transform="matrix(0.27936284,0,0,0.27936284,-0.87640427,2.7760214)"
     id="g46"
     style="fill:#222222">
    <path
       d="M 61.077,4.2013 C 29.008,7.6722 4.015,34.7383 3.889,67.7013 h 11.906 c -10e-4,-0.13569 0,-0.27032 0,-0.40625 0,-26.472 19.725,-48.306 45.281,-51.656 v -11.437 z"
       id="path36"
       inkscape:connector-curvature="0" />
    <path
       d="M 61.077,25.42 C 40.972,28.8976 25.668,46.366 25.608,67.451 H 36.733 C 36.85011,52.727 47.242,40.449 61.077,37.389 Z"
       id="path38"
       inkscape:connector-curvature="0" />
    <path
       d="m 68.171,50.108 c -9.502,0 -17.188,7.6855 -17.188,17.188 0,9.502 7.6855,17.219 17.188,17.219 9.502,0 17.219,-7.7167 17.219,-17.219 0,-9.502 -7.7167,-17.188 -17.219,-17.188 z"
       id="path40"
       inkscape:connector-curvature="0" />
    <path
       d="M 98.14,74.17 C 95.1793,88.124 82.859,98.615 68.046,98.732 v 11.656 c 0.12455,10e-4 0.2502,0 0.375,0 21.41,0 39.173,-15.697 42.344,-36.219 H 98.14 Z"
       id="path42"
       inkscape:connector-curvature="0" />
    <path
       d="m 119.58,74.17 c -3.3587,25.459 -25.062,45.157 -51.406,45.281 v 12.656 c 33.284,-0.0636 60.6,-25.457 63.719,-57.938 h -12.312 z"
       id="path44"
       inkscape:connector-curvature="0" />
  </g>
</svg>
